img/stripe.svg

<svg width="103" height="43" viewBox="0 0 103 43" fill="none" xmlns="http://www.w3.org/2000/svg">
<path d="M26.5555 3.79318L19.5869 5.25682L19.5547 27.9114C19.5547 32.0955 22.7413 34.8 26.9739 34.8C29.3236 34.8 31.0457 34.3705 31.9952 33.8614V28.4841C31.0778 28.85 26.5716 30.1546 26.5716 25.9864V15.9318H31.9952V9.91818H26.5716L26.5555 3.79318ZM40.895 12.0023L40.4605 9.91818H34.2805V34.2909H41.41V17.8886C43.0999 15.6932 45.9485 16.1227 46.8658 16.4091V9.91818C45.9002 9.58409 42.5688 8.96364 40.895 12.0023ZM55.7496 0.5L48.5717 2.01136V7.77045L55.7496 6.25909V0.5ZM7.2269 17.0932C7.2269 15.9955 8.16034 15.5659 9.65706 15.55C11.8297 15.55 14.5978 16.2023 16.7705 17.3636V10.7136C14.4047 9.79091 12.0389 9.425 9.67315 9.425C3.8794 9.425 0.0168991 12.4159 0.0168991 17.4114C0.0168991 25.2386 10.8802 23.9659 10.8802 27.3386C10.8802 28.6432 9.73752 29.0727 8.14424 29.0727C5.77846 29.0727 2.72065 28.1023 0.32268 26.8136V33.1773C2.97815 34.3068 5.66581 34.7841 8.12815 34.7841C14.0667 34.7841 18.1546 32.2705 18.1546 27.1795C18.1546 18.7636 7.2269 20.275 7.2269 17.0932ZM103.001 22.3909C103.001 15.1523 99.4602 9.44091 92.6686 9.44091C85.8771 9.44091 81.741 15.1523 81.741 22.3432C81.741 30.8545 86.6174 34.7841 93.5699 34.7841C96.9818 34.7841 99.5407 34.0205 101.488 32.9545V27.6409C99.5407 28.6114 97.3036 29.2 94.4711 29.2C91.6869 29.2 89.2407 28.2295 88.9188 24.9205H102.904C102.936 24.5545 103.001 23.075 103.001 22.3909ZM88.8544 19.7182C88.8544 16.5364 90.8339 15.2 92.6203 15.2C94.3746 15.2 96.2414 16.5364 96.2414 19.7182H88.8544ZM70.6846 9.44091C67.8842 9.44091 66.0817 10.7455 65.0839 11.6523L64.7138 9.90227H58.4211V42.4841L65.5667 40.9886L65.5828 33.0023C66.6128 33.75 68.1417 34.7841 70.6363 34.7841C75.7541 34.7841 80.4213 31.0932 80.4213 22.1205C80.4374 13.9114 75.7058 9.44091 70.6846 9.44091ZM68.9786 28.9296C67.3049 28.9296 66.3071 28.325 65.615 27.5932L65.5667 17.0932C66.3071 16.2818 67.3371 15.6932 68.9786 15.6932C71.5858 15.6932 73.3883 18.5886 73.3883 22.2795C73.4044 26.0818 71.6341 28.9296 68.9786 28.9296ZM48.5878 34.2909H55.7657V9.91818H48.5878V34.2909Z" fill="white"/>
</svg>

<svg xmlns="http://www.w3.org/2000/svg" width="103" height="43" fill="none"><path fill="#fff" d="m26.555 3.793-6.968 1.464-.032 22.654c0 4.184 3.186 6.889 7.419 6.889 2.35 0 4.072-.43 5.021-.939v-5.377c-.917.366-5.423 1.67-5.423-2.498V15.932h5.423V9.918h-5.423l-.017-6.125Zm14.34 8.21-.434-2.085h-6.18v24.373h7.129V17.889c1.69-2.196 4.539-1.766 5.456-1.48V9.92c-.966-.335-4.297-.955-5.971 2.083ZM55.75.5l-7.178 1.511v5.76l7.178-1.512V.5ZM7.227 17.093c0-1.098.933-1.527 2.43-1.543 2.173 0 4.94.652 7.113 1.814v-6.65c-2.365-.923-4.731-1.289-7.097-1.289-5.794 0-9.656 2.99-9.656 7.986 0 7.828 10.863 6.555 10.863 9.928 0 1.304-1.142 1.734-2.736 1.734-2.366 0-5.423-.97-7.821-2.26v6.364a20.003 20.003 0 0 0 7.805 1.607c5.939 0 10.027-2.514 10.027-7.604 0-8.416-10.928-6.905-10.928-10.087ZM103 22.391c0-7.239-3.54-12.95-10.332-12.95-6.792 0-10.928 5.711-10.928 12.902 0 8.512 4.876 12.441 11.829 12.441 3.412 0 5.97-.764 7.918-1.83v-5.313c-1.947.97-4.184 1.559-7.017 1.559-2.784 0-5.23-.97-5.552-4.28h13.985c.032-.366.097-1.845.097-2.53Zm-14.147-2.673c0-3.182 1.98-4.518 3.766-4.518 1.755 0 3.621 1.336 3.621 4.518h-7.387ZM70.684 9.441c-2.8 0-4.602 1.304-5.6 2.211l-.37-1.75H58.42v32.582l7.146-1.495.016-7.987c1.03.748 2.559 1.782 5.053 1.782 5.118 0 9.785-3.69 9.785-12.663.016-8.21-4.715-12.68-9.736-12.68ZM68.98 28.93c-1.674 0-2.672-.605-3.364-1.337l-.048-10.5c.74-.811 1.77-1.4 3.412-1.4 2.607 0 4.41 2.896 4.41 6.586.015 3.803-1.755 6.65-4.41 6.65Zm-20.391 5.36h7.178V9.919h-7.178v24.373Z"/></svg>
